; generated by Slic3r 1.2.9 on 2015-09-16 at 20:38:45

; external perimeters extrusion width = 0.40mm
; perimeters extrusion width = 0.50mm
; infill extrusion width = 0.50mm
; solid infill extrusion width = 0.50mm
; top infill extrusion width = 0.40mm

M107
M104 S200 ; set temperature
G1 Z10 F200 ; lift nozzle
G28 X Y ; Home X and Y (NOT Z!!!)

M109 S200 ; wait for temperature to be reached
G21 ; set units to millimeters
G90 ; use absolute coordinates
M82 ; use absolute distances for extrusion
G92 E0
G1 E-3.00000 F3000.00000
G92 E0
G1 Z0.300 F5400.000
G1 X89.410 Y93.056 F5400.000
G1 E3.00000 F3000.00000
M204 S50
G1 F251.539
G1 X89.822 Y92.660 E3.03819
G1 X98.732 Y87.516 E3.72551
G1 X100.000 Y87.176 E3.81320
G1 X101.268 Y87.516 E3.90088
G1 F251.539
G1 X110.178 Y92.660 E4.58820
G1 X111.155 Y93.677 E4.68241
G1 X111.446 Y94.856 E4.76354
G1 X111.446 Y105.144 E5.45086
G1 X111.053 Y106.499 E5.54506
G1 X110.178 Y107.340 E5.62619
G1 X101.268 Y112.484 E6.31351
G1 X100.000 Y112.824 E6.40119
G1 X98.732 Y112.484 E6.48888
G1 X89.822 Y107.340 E7.17620
G1 X88.845 Y106.323 E7.27040
G1 X88.554 Y105.144 E7.35153
G1 X88.554 Y94.856 E8.03885
G1 X88.947 Y93.501 E8.13306
G1 X89.367 Y93.098 E8.17198
M204 S10000
G1 E5.17198 F3000.00000
G92 E0
G1 X91.590 Y95.144 F5400.000
G1 E3.00000 F3000.00000
M204 S50
G1 F251.539
G1 X99.226 Y90.736 E3.58905
G1 F251.539
G1 X100.000 Y90.289 E3.64875
G1 X108.410 Y95.144 E4.29750
G1 X108.410 Y104.856 E4.94625
G1 X100.000 Y109.711 E5.59500
G1 X91.590 Y104.856 E6.24375
G1 X91.590 Y95.204 E6.88849
M204 S10000
G1 X91.590 Y95.144 F5400.000
G1 X91.390 Y100.000 F5400.000
M204 S50
G1 F251.539
G1 X91.390 Y95.029 E7.22058
G1 X100.000 Y90.058 E7.88475
G1 X100.614 Y90.412 E7.93210
G1 F251.539
G1 X108.610 Y95.029 E8.54893
G1 X108.610 Y104.971 E9.21311
G1 X100.000 Y109.942 E9.87729
G1 X91.390 Y104.971 E10.54146
G1 X91.390 Y100.060 E10.86954
M204 S10000
G1 X91.680 Y99.724 F5400.000
M104 S190 ; set temperature
G1 E7.86954 F3000.00000
G92 E0
G1 Z0.420 F5400.000
G1 X91.690 Y95.202 F5400.000
G1 E3.00000 F3000.00000
M204 S2000
G1 F900
G1 X98.403 Y91.327 E3.14473
G1 F900
G1 X100.000 Y90.404 E3.17916
G1 X108.310 Y95.202 E3.35832
G1 X108.310 Y104.798 E3.53748
G1 X100.000 Y109.596 E3.71665
G1 X91.690 Y104.798 E3.89581
G1 X91.690 Y95.262 E4.07385
M204 S10000
G1 X91.690 Y95.202 F5400.000
G1 X91.290 Y100.000 F5400.000
M204 S2000
G1 F900
G1 X91.290 Y94.971 E4.16774
G1 X100.000 Y89.943 E4.35553
G1 X101.733 Y90.943 E4.39289
G1 F900
G1 X108.710 Y94.971 E4.54331
G1 X108.710 Y105.029 E4.73110
G1 X100.000 Y110.057 E4.91888
G1 X91.290 Y105.029 E5.10667
G1 X91.290 Y100.060 E5.19944
M204 S10000
G1 X91.580 Y99.724 F5400.000
M106 S255
G1 E2.19944 F3000.00000
G92 E0
G1 Z0.540 F5400.000
G1 X91.690 Y95.202 F5400.000
G1 E3.00000 F3000.00000
M204 S2000
G1 F900
G1 X97.904 Y91.615 E3.13397
G1 F900
G1 X100.000 Y90.404 E3.17916
G1 X108.310 Y95.202 E3.35832
G1 X108.310 Y104.798 E3.53748
G1 X100.000 Y109.596 E3.71665
G1 X91.690 Y104.798 E3.89581
G1 X91.690 Y95.262 E4.07385
M204 S10000
G1 X91.690 Y95.202 F5400.000
G1 E1.07385 F3000.00000
G92 E0
G1 X108.710 Y100.000 F5400.000
G1 E3.00000 F3000.00000
M204 S2000
G1 F900
G1 X108.710 Y105.029 E3.09389
G1 X100.000 Y110.057 E3.28168
G1 X91.290 Y105.029 E3.46946
G1 X91.290 Y94.971 E3.65725
G1 X100.000 Y89.943 E3.84503
G1 X102.344 Y91.296 E3.89557
G1 F900
G1 X108.710 Y94.971 E4.03282
G1 X108.710 Y99.940 E4.12559
M204 S10000
G1 X108.413 Y100.268 F5400.000
G1 E1.12559 F3000.00000
G92 E0
G1 Z0.660 F5400.000
G1 X91.690 Y95.202 F5400.000
G1 E3.00000 F3000.00000
M204 S2000
G1 F900
G1 X97.405 Y91.903 E3.12321
G1 F900
G1 X100.000 Y90.404 E3.17916
G1 X108.310 Y95.202 E3.35832
G1 X108.310 Y104.798 E3.53748
G1 X100.000 Y109.596 E3.71665
G1 X91.690 Y104.798 E3.89581
G1 X91.690 Y95.262 E4.07385
M204 S10000
G1 X91.690 Y95.202 F5400.000
G1 E1.07385 F3000.00000
G92 E0
G1 X108.710 Y100.000 F5400.000
G1 E3.00000 F3000.00000
M204 S2000
G1 F900
G1 X108.710 Y105.029 E3.09389
G1 X100.000 Y110.057 E3.28168
G1 X91.290 Y105.029 E3.46946
G1 X91.290 Y94.971 E3.65725
G1 X100.000 Y89.943 E3.84503
G1 X102.955 Y91.649 E3.90874
G1 F900
G1 X108.710 Y94.971 E4.03282
G1 X108.710 Y99.940 E4.12559
M204 S10000
G1 X108.411 Y100.265 F5400.000
G1 E1.12559 F3000.00000
G92 E0
G1 Z0.780 F5400.000
G1 X91.690 Y95.202 F5400.000
G1 E3.00000 F3000.00000
M204 S2000
G1 F900
G1 X100.000 Y90.404 E3.17916
G1 X108.310 Y95.202 E3.35832
G1 X108.310 Y104.798 E3.53748
G1 X100.000 Y109.596 E3.71665
G1 X91.690 Y104.798 E3.89581
G1 F900
G1 X91.690 Y95.262 E4.07385
M204 S10000
G1 X91.690 Y95.202 F5400.000
G1 X91.290 Y100.000 F5400.000
M204 S2000
G1 F900
G1 X91.290 Y94.971 E4.16774
G1 X100.000 Y89.943 E4.35553
G1 X103.566 Y92.001 E4.43241
G1 F900
G1 X108.710 Y94.971 E4.54331
G1 X108.710 Y105.029 E4.73110
G1 X100.000 Y110.057 E4.91888
G1 X91.290 Y105.029 E5.10667
G1 X91.290 Y100.060 E5.19944
M204 S10000
G1 X91.580 Y99.724 F5400.000
G1 E2.19944 F3000.00000
G92 E0
G1 Z0.900 F5400.000
G1 X91.690 Y95.202 F5400.000
G1 E3.00000 F3000.00000
M204 S2000
G1 F900
G1 X96.406 Y92.479 E3.10169
G1 F900
G1 X100.000 Y90.404 E3.17916
G1 X108.310 Y95.202 E3.35832
G1 X108.310 Y104.798 E3.53748
G1 X100.000 Y109.596 E3.71665
G1 X91.690 Y104.798 E3.89581
G1 X91.690 Y95.262 E4.07385
M204 S10000
G1 X91.690 Y95.202 F5400.000
G1 X91.290 Y100.000 F5400.000
M204 S2000
G1 F900
G1 X91.290 Y94.971 E4.16774
G1 X100.000 Y89.943 E4.35553
G1 X104.177 Y92.354 E4.44558
G1 F900
G1 X108.710 Y94.971 E4.54331
G1 X108.710 Y105.029 E4.73110
G1 X100.000 Y110.057 E4.91888
G1 X91.290 Y105.029 E5.10667
G1 X91.290 Y100.060 E5.19944
M204 S10000
G1 X91.580 Y99.724 F5400.000
G1 E2.19944 F3000.00000
G92 E0
G1 Z1.020 F5400.000
G1 X91.690 Y95.202 F5400.000
G1 E3.00000 F3000.00000
M204 S2000
G1 F900
G1 X95.907 Y92.767 E3.09093
G1 F900
G1 X100.000 Y90.404 E3.17916
G1 X108.310 Y95.202 E3.35832
G1 X108.310 Y104.798 E3.53748
G1 X100.000 Y109.596 E3.71665
G1 X91.690 Y104.798 E3.89581
G1 X91.690 Y95.262 E4.07385
M204 S10000
G1 X91.690 Y95.202 F5400.000
G1 E1.07385 F3000.00000
G92 E0
G1 X108.710 Y100.000 F5400.000
G1 E3.00000 F3000.00000
M204 S2000
G1 F900
G1 X108.710 Y105.029 E3.09389
G1 X100.000 Y110.057 E3.28168
G1 X91.290 Y105.029 E3.46946
G1 X91.290 Y94.971 E3.65725
G1 X100.000 Y89.943 E3.84503
G1 X104.788 Y92.707 E3.94826
G1 F900
G1 X108.710 Y94.971 E4.03282
G1 X108.710 Y99.940 E4.12559
M204 S10000
G1 X108.401 Y100.254 F5400.000
G1 E1.12559 F3000.00000
G92 E0
G1 Z1.140 F5400.000
G1 X91.690 Y95.202 F5400.000
G1 E3.00000 F3000.00000
M204 S2000
G1 F900
G1 X95.441 Y93.036 E3.08088
G1 F900
G1 X100.000 Y90.404 E3.17916
G1 X108.310 Y95.202 E3.35832
G1 X108.310 Y104.798 E3.53748
G1 X100.000 Y109.596 E3.71665
G1 X91.690 Y104.798 E3.89581
G1 X91.690 Y95.262 E4.07385
M204 S10000
G1 X91.690 Y95.202 F5400.000
G1 E1.07385 F3000.00000
G92 E0
G1 X108.710 Y100.000 F5400.000
G1 E3.00000 F3000.00000
M204 S2000
G1 F900
G1 X108.710 Y105.029 E3.09389
G1 X100.000 Y110.057 E3.28168
G1 X91.290 Y105.029 E3.46946
G1 X91.290 Y94.971 E3.65725
G1 X100.000 Y89.943 E3.84503
G1 X105.399 Y93.060 E3.96143
G1 F900
G1 X108.710 Y94.971 E4.03282
G1 X108.710 Y99.940 E4.12559
M204 S10000
G1 X108.397 Y100.249 F5400.000
G1 E1.12559 F3000.00000
G92 E0
G1 Z1.260 F5400.000
G1 X91.690 Y95.202 F5400.000
G1 E3.00000 F3000.00000
M204 S2000
G1 F900
G1 X94.909 Y93.344 E3.06941
G1 F900
G1 X100.000 Y90.404 E3.17916
G1 X108.310 Y95.202 E3.35832
G1 X108.310 Y104.798 E3.53748
G1 X100.000 Y109.596 E3.71665
G1 X91.690 Y104.798 E3.89581
G1 X91.690 Y95.262 E4.07385
M204 S10000
G1 X91.690 Y95.202 F5400.000
G1 E1.07385 F3000.00000
G92 E0
G1 X108.710 Y100.000 F5400.000
G1 E3.00000 F3000.00000
M204 S2000
G1 F900
G1 X108.710 Y105.029 E3.09389
G1 X100.000 Y110.057 E3.28168
G1 X91.290 Y105.029 E3.46946
G1 X91.290 Y94.971 E3.65725
G1 X100.000 Y89.943 E3.84503
G1 X106.010 Y93.412 E3.97460
G1 F900
G1 X108.710 Y94.971 E4.03282
G1 X108.710 Y99.940 E4.12559
M204 S10000
G1 X108.392 Y100.243 F5400.000
G1 E1.12559 F3000.00000
G92 E0
G1 Z1.380 F5400.000
G1 X91.690 Y95.202 F5400.000
G1 E3.00000 F3000.00000
M204 S2000
G1 F900
G1 X94.410 Y93.632 E3.05865
G1 F900
G1 X100.000 Y90.404 E3.17916
G1 X108.310 Y95.202 E3.35832
G1 X108.310 Y104.798 E3.53748
G1 X100.000 Y109.596 E3.71665
G1 X91.690 Y104.798 E3.89581
G1 X91.690 Y95.262 E4.07385
M204 S10000
G1 X91.690 Y95.202 F5400.000
G1 E1.07385 F3000.00000
G92 E0
G1 X108.710 Y100.000 F5400.000
G1 E3.00000 F3000.00000
M204 S2000
G1 F900
G1 X108.710 Y105.029 E3.09389
G1 X100.000 Y110.057 E3.28168
G1 X91.290 Y105.029 E3.46946
G1 X91.290 Y94.971 E3.65725
G1 X100.000 Y89.943 E3.84503
G1 X106.621 Y93.765 E3.98777
G1 F900
G1 X108.710 Y94.971 E4.03282
G1 X108.710 Y99.940 E4.12559
M204 S10000
G1 X108.387 Y100.236 F5400.000
G1 E1.12559 F3000.00000
G92 E0
G1 Z1.500 F5400.000
G1 X91.690 Y95.202 F5400.000
G1 E3.00000 F3000.00000
M204 S2000
G1 F900
G1 X93.911 Y93.920 E3.04789
G1 F900
G1 X100.000 Y90.404 E3.17916
G1 X108.310 Y95.202 E3.35832
G1 X108.310 Y104.798 E3.53748
G1 X100.000 Y109.596 E3.71665
G1 X91.690 Y104.798 E3.89581
G1 X91.690 Y95.262 E4.07385
M204 S10000
G1 X91.690 Y95.202 F5400.000
G1 E1.07385 F3000.00000
G92 E0
G1 X108.710 Y100.000 F5400.000
G1 E3.00000 F3000.00000
M204 S2000
G1 F900
G1 X108.710 Y105.029 E3.09389
G1 X100.000 Y110.057 E3.28168
G1 X91.290 Y105.029 E3.46946
G1 X91.290 Y94.971 E3.65725
G1 X100.000 Y89.943 E3.84503
G1 X107.232 Y94.118 E4.00095
G1 F900
G1 X108.710 Y94.971 E4.03282
G1 X108.710 Y99.940 E4.12559
M204 S10000
G1 X108.381 Y100.228 F5400.000
G1 E1.12559 F3000.00000
G92 E0
G1 Z1.620 F5400.000
G1 X91.690 Y95.202 F5400.000
G1 E3.00000 F3000.00000
M204 S2000
G1 F900
G1 X100.000 Y90.404 E3.17916
G1 X108.310 Y95.202 E3.35832
G1 X108.310 Y104.798 E3.53748
G1 X100.000 Y109.596 E3.71665
G1 X91.690 Y104.798 E3.89581
G1 X91.690 Y95.262 E4.07385
M204 S10000
G1 X91.490 Y94.856 F5400.000
G1 E1.07385 F3000.00000
G92 E0
G1 X108.710 Y100.000 F5400.000
G1 E3.00000 F3000.00000
M204 S2000
G1 F900
G1 X108.710 Y105.029 E3.09389
G1 X100.000 Y110.057 E3.28168
G1 X91.290 Y105.029 E3.46946
G1 X91.290 Y94.971 E3.65725
G1 X100.000 Y89.943 E3.84503
G1 X107.843 Y94.470 E4.01412
G1 F900
G1 X108.710 Y94.971 E4.03282
G1 X108.710 Y99.940 E4.12559
M204 S10000
G1 X108.374 Y100.218 F5400.000
G1 E1.12559 F3000.00000
G92 E0
G1 Z1.740 F5400.000
G1 X91.690 Y95.202 F5400.000
G1 E3.00000 F3000.00000
M204 S2000
G1 F900
G1 X92.913 Y94.496 E3.02637
G1 F900
G1 X100.000 Y90.404 E3.17916
G1 X108.310 Y95.202 E3.35832
G1 X108.310 Y104.798 E3.53748
G1 X100.000 Y109.596 E3.71665
G1 X91.690 Y104.798 E3.89581
G1 X91.690 Y95.262 E4.07385
M204 S10000
G1 X91.690 Y95.202 F5400.000
G1 E1.07385 F3000.00000
G92 E0
G1 X108.710 Y100.000 F5400.000
G1 E3.00000 F3000.00000
M204 S2000
G1 F900
G1 X108.710 Y105.029 E3.09389
G1 X100.000 Y110.057 E3.28168
G1 X91.290 Y105.029 E3.46946
G1 X91.290 Y94.971 E3.65725
G1 X100.000 Y89.943 E3.84503
G1 X108.429 Y94.809 E4.02675
G1 F900
G1 X108.710 Y94.971 E4.03282
G1 X108.710 Y99.940 E4.12559
M204 S10000
G1 X108.367 Y100.206 F5400.000
G1 E1.12559 F3000.00000
G92 E0
G1 Z1.860 F5400.000
G1 X91.690 Y95.202 F5400.000
G1 E3.00000 F3000.00000
M204 S2000
G1 F900
G1 X92.414 Y94.784 E3.01561
G1 F900
G1 X100.000 Y90.404 E3.17916
G1 X108.310 Y95.202 E3.35832
G1 X108.310 Y104.798 E3.53748
G1 X100.000 Y109.596 E3.71665
G1 X91.690 Y104.798 E3.89581
G1 X91.690 Y95.262 E4.07385
M204 S10000
G1 X91.690 Y95.202 F5400.000
G1 E1.07385 F3000.00000
G92 E0
G1 X108.752 Y100.000 F5400.000
G1 E3.00000 F3000.00000
M204 S2000
G1 F900
G1 X108.752 Y105.053 E3.09435
G1 X100.000 Y110.106 E3.28305
G1 X91.248 Y105.053 E3.47174
G1 X91.248 Y94.947 E3.66044
G1 X100.000 Y89.894 E3.84914
G1 X108.467 Y94.782 E4.03169
G1 F900
G1 X108.752 Y94.947 E4.03784
G1 X108.752 Y99.940 E4.13107
M204 S10000
G1 X108.410 Y100.206 F5400.000
G1 E1.13107 F3000.00000
G92 E0
G1 Z1.980 F5400.000
G1 X91.690 Y95.202 F5400.000
G1 E3.00000 F3000.00000
M204 S2000
G1 F900
G1 X91.990 Y95.029 E3.00646
G1 F900
G1 X100.000 Y90.404 E3.17916
G1 X108.310 Y95.202 E3.35832
G1 X108.310 Y104.798 E3.53748
G1 X100.000 Y109.596 E3.71665
G1 X91.690 Y104.798 E3.89581
G1 X91.690 Y95.262 E4.07385
M204 S10000
G1 X91.690 Y95.202 F5400.000
G1 E1.07385 F3000.00000
G92 E0
G1 X108.854 Y100.000 F5400.000
G1 E3.00000 F3000.00000
M204 S2000
G1 F900
G1 X108.854 Y105.112 E3.09544
G1 X100.000 Y110.224 E3.28633
G1 X91.146 Y105.112 E3.47722
G1 X91.146 Y94.888 E3.66810
G1 X100.000 Y89.776 E3.85899
G1 X107.645 Y94.190 E4.02381
G1 F900
G1 X108.854 Y94.888 E4.04988
G1 X108.854 Y99.940 E4.14420
M204 S10000
G1 X108.522 Y100.223 F5400.000
G1 E1.14420 F3000.00000
G92 E0
G1 Z2.100 F5400.000
G1 X91.614 Y95.158 F5400.000
G1 E3.00000 F3000.00000
M204 S2000
G1 F900
G1 X92.351 Y94.732 E3.01590
G1 F900
G1 X100.000 Y90.317 E3.18080
G1 X108.386 Y95.158 E3.36161
G1 X108.386 Y104.842 E3.54241
G1 X100.000 Y109.683 E3.72321
G1 X91.614 Y104.842 E3.90402
G1 X91.614 Y95.218 E4.08370
M204 S10000
G1 X91.614 Y95.158 F5400.000
G1 X91.045 Y100.000 F5400.000
M204 S2000
G1 F900
G1 X91.045 Y94.830 E4.18024
G1 X100.000 Y89.659 E4.37331
G1 X106.822 Y93.598 E4.52040
G1 F900
G1 X108.955 Y94.830 E4.56639
G1 X108.955 Y105.170 E4.75947
G1 X100.000 Y110.341 E4.95254
G1 X91.045 Y105.170 E5.14562
G1 X91.045 Y100.060 E5.24104
M204 S10000
G1 X91.334 Y99.724 F5400.000
G1 E2.24104 F3000.00000
G92 E0
G1 Z2.220 F5400.000
G1 X91.512 Y95.100 F5400.000
G1 E3.00000 F3000.00000
M204 S2000
G1 F900
G1 X93.100 Y94.183 E3.03423
G1 F900
G1 X100.000 Y90.199 E3.18299
G1 X108.488 Y95.100 E3.36599
G1 X108.488 Y104.900 E3.54898
G1 X100.000 Y109.801 E3.73197
G1 X91.512 Y104.900 E3.91496
G1 X91.512 Y95.160 E4.09684
M204 S10000
G1 X91.512 Y95.100 F5400.000
G1 X90.943 Y100.000 F5400.000
M204 S2000
G1 F900
G1 X90.943 Y94.771 E4.19447
G1 X100.000 Y89.542 E4.38973
G1 X106.000 Y93.006 E4.51909
G1 F900
G1 X109.057 Y94.771 E4.58500
G1 X109.057 Y105.229 E4.78026
G1 X100.000 Y110.458 E4.97553
G1 X90.943 Y105.229 E5.17079
G1 X90.943 Y100.060 E5.26730
M204 S10000
G1 X91.233 Y99.724 F5400.000
G1 E2.26730 F3000.00000
G92 E0
G1 Z2.340 F5400.000
G1 X91.411 Y95.041 F5400.000
G1 E3.00000 F3000.00000
M204 S2000
G1 F900
G1 X93.849 Y93.633 E3.05256
G1 F900
G1 X100.000 Y90.082 E3.18518
G1 X108.589 Y95.041 E3.37036
G1 X108.589 Y104.959 E3.55555
G1 X100.000 Y109.918 E3.74073
G1 X91.411 Y104.959 E3.92591
G1 X91.411 Y95.101 E4.10997
M204 S10000
G1 X91.411 Y95.041 F5400.000
G1 E1.10997 F3000.00000
G92 E0
G1 X109.158 Y100.000 F5400.000
G1 E3.00000 F3000.00000
M204 S2000
G1 F900
G1 X109.158 Y105.288 E3.09873
G1 X100.000 Y110.575 E3.29618
G1 X90.842 Y105.288 E3.49364
G1 X90.842 Y94.712 E3.69109
G1 X100.000 Y89.425 E3.88854
G1 X105.177 Y92.414 E4.00017
G1 F900
G1 X109.158 Y94.712 E4.08600
G1 X109.158 Y99.940 E4.18360
M204 S10000
G1 X108.849 Y100.253 F5400.000
G1 E1.18360 F3000.00000
G92 E0
G1 Z2.460 F5400.000
G1 X91.309 Y94.982 F5400.000
G1 E3.00000 F3000.00000
M204 S2000
G1 F900
G1 X94.672 Y93.041 E3.07250
G1 F900
G1 X100.000 Y89.965 E3.18737
G1 X108.691 Y94.982 E3.37474
G1 X108.691 Y105.018 E3.56211
G1 X100.000 Y110.035 E3.74948
G1 X91.309 Y105.018 E3.93685
G1 X91.309 Y95.042 E4.12310
M204 S10000
G1 X91.309 Y94.982 F5400.000
G1 E1.12310 F3000.00000
G92 E0
G1 X109.260 Y100.000 F5400.000
G1 E3.00000 F3000.00000
M204 S2000
G1 F900
G1 X109.260 Y105.346 E3.09982
G1 X100.000 Y110.693 E3.29946
G1 X90.740 Y105.346 E3.49911
G1 X90.740 Y94.654 E3.69875
G1 X100.000 Y89.307 E3.89839
G1 X104.355 Y91.822 E3.99229
G1 F900
G1 X109.260 Y94.654 E4.09804
G1 X109.260 Y99.940 E4.19674
M204 S10000
G1 X108.955 Y100.259 F5400.000
G1 E1.19674 F3000.00000
G92 E0
G1 Z2.580 F5400.000
G1 X91.208 Y94.924 F5400.000
G1 E3.00000 F3000.00000
M204 S2000
G1 F900
G1 X95.346 Y92.535 E3.08922
G1 F900
G1 X100.000 Y89.848 E3.18956
G1 X108.792 Y94.924 E3.37912
G1 X108.792 Y105.076 E3.56868
G1 X100.000 Y110.152 E3.75824
G1 X91.208 Y105.076 E3.94780
G1 X91.208 Y94.984 E4.13624
M204 S10000
G1 X91.208 Y94.924 F5400.000
G1 X90.638 Y100.000 F5400.000
M204 S2000
G1 F900
G1 X90.638 Y94.595 E4.23716
G1 X100.000 Y89.190 E4.43899
G1 X103.532 Y91.230 E4.51515
G1 F900
G1 X109.362 Y94.595 E4.64082
G1 X109.362 Y105.405 E4.84265
G1 X100.000 Y110.810 E5.04449
G1 X90.638 Y105.405 E5.24632
